packages/sights/assets/overlays/CELBsvYD.svg

<svg width="500" height="375" viewBox="0 0 500 375" fill="none" xmlns="http://www.w3.org/2000/svg">
<path d="M231.18 7C231.18 7 278.42 33.75 287.13 43.41C287.13 43.41 423.89 55.79 460.94 81.93C460.94 81.93 469.66 104.86 468.74 122.29L478.37 127.79L487.54 158.97L477.45 224.55C477.45 224.55 442.14 283.25 368.31 318.55C368.31 318.55 222.01 342.85 199.54 342.39C199.54 342.39 163.77 341.48 149.1 319.46C149.1 319.46 90.85 133.27 52.79 131.9C52.79 131.9 11.52 123.64 44.54 223.62L45.91 229.62L12 203.46" stroke="white" stroke-miterlimit="10"/>
<path d="M107.553 348.3C120.395 344.383 119.642 304.602 105.871 259.446C92.0996 214.29 70.5253 180.858 57.6832 184.775C44.8411 188.691 45.5942 228.472 59.3653 273.629C73.1365 318.785 94.7108 352.216 107.553 348.3Z" stroke="white" stroke-miterlimit="10"/>
<path d="M78.5389 153.54L58.8989 157.14L50.3389 163.25C50.3389 163.25 39.6389 183.43 47.5889 232.65C47.5889 232.65 65.5889 336.45 111.489 365.8L124.789 368.55L177.789 338.63" stroke="white" stroke-miterlimit="10"/>
<path d="M41.7793 7L47.9993 24.6C47.9993 24.6 206.7 32.69 287.16 43.41" stroke="white" stroke-miterlimit="10"/>
<path d="M116.08 91.5596L126.17 88.3496L344.46 103.02L349.46 111.74L312.32 162.18C312.32 162.18 162.39 150.75 142.22 138.75L116.08 99.7496V91.5596Z" stroke="white" stroke-miterlimit="10"/>
<path d="M344.461 103.02C344.461 103.02 458.301 100.75 464.661 93.6299" stroke="white" stroke-miterlimit="10"/>
<path d="M468.739 122.29L476.079 146.13C476.079 146.13 457.269 165.87 370.599 189.25L312.359 162.18" stroke="white" stroke-miterlimit="10"/>
<path d="M481.731 166.31L425.171 197.19L420.891 234.79L478.681 194.74L481.731 166.31Z" stroke="white" stroke-miterlimit="10"/>
<path d="M422.091 224.29C422.011 225 385.091 239.69 382.681 243.66C382.681 243.66 298.121 327.74 274.211 333.4" stroke="white" stroke-miterlimit="10"/>
<path d="M50.6504 25.2002C50.6504 25.2002 54.6504 36.6802 53.1004 43.4102C53.1004 43.4102 140.86 45.2501 192.21 92.7901" stroke="white" stroke-miterlimit="10"/>
</svg>

<svg width="500" height="375" fill="none" xmlns="http://www.w3.org/2000/svg"><path d="M231.18 7s47.24 26.75 55.95 36.41c0 0 136.76 12.38 173.81 38.52 0 0 8.72 22.93 7.8 40.36l9.63 5.5 9.17 31.18-10.09 65.58s-35.31 58.7-109.14 94c0 0-146.3 24.3-168.77 23.84 0 0-35.77-.91-50.44-22.93 0 0-58.25-186.19-96.31-187.56 0 0-41.27-8.26-8.25 91.72l1.37 6L12 203.46" stroke="#fff" stroke-miterlimit="10"/><path d="M107.553 348.3c12.842-3.917 12.089-43.698-1.682-88.854s-35.346-78.588-48.188-74.671c-12.842 3.916-12.089 43.697 1.682 88.854 13.771 45.156 35.346 78.587 48.188 74.671Z" stroke="#fff" stroke-miterlimit="10"/><path d="m78.539 153.54-19.64 3.6-8.56 6.11s-10.7 20.18-2.75 69.4c0 0 18 103.8 63.9 133.15l13.3 2.75 53-29.92M41.78 7 48 24.6s158.7 8.09 239.16 18.81M116.08 91.56l10.09-3.21 218.29 14.67 5 8.72-37.14 50.44s-149.93-11.43-170.1-23.43l-26.14-39v-8.19ZM344.461 103.02s113.84-2.27 120.2-9.39M468.739 122.29l7.34 23.84s-18.81 19.74-105.48 43.12l-58.24-27.07M481.731 166.31l-56.56 30.88-4.28 37.6 57.79-40.05 3.05-28.43Z" stroke="#fff" stroke-miterlimit="10"/><path d="M422.091 224.29c-.08.71-37 15.4-39.41 19.37 0 0-84.56 84.08-108.47 89.74M50.65 25.2s4 11.48 2.45 18.21c0 0 87.76 1.84 139.11 49.38" stroke="#fff" stroke-miterlimit="10"/></svg>
